static/icons/basic/check-done.svg

<svg width="30" height="30" viewBox="0 0 30 30" fill="none" xmlns="http://www.w3.org/2000/svg">
<path d="M20.3337 9.66675V5.93341C20.3337 4.43994 20.3337 3.6932 20.043 3.12277C19.7873 2.62101 19.3794 2.21306 18.8776 1.9574C18.3072 1.66675 17.5605 1.66675 16.067 1.66675H5.93366C4.44019 1.66675 3.69345 1.66675 3.12302 1.9574C2.62125 2.21306 2.2133 2.62101 1.95764 3.12277C1.66699 3.6932 1.66699 4.43994 1.66699 5.93341V16.0667C1.66699 17.5602 1.66699 18.307 1.95764 18.8774C2.2133 19.3792 2.62125 19.7871 3.12302 20.0428C3.69345 20.3334 4.44019 20.3334 5.93366 20.3334H9.66699M15.0003 19.0001L17.667 21.6667L23.667 15.6667M13.9337 28.3334H24.067C25.5605 28.3334 26.3072 28.3334 26.8776 28.0428C27.3794 27.7871 27.7873 27.3792 28.043 26.8774C28.3337 26.307 28.3337 25.5602 28.3337 24.0667V13.9334C28.3337 12.4399 28.3337 11.6932 28.043 11.1228C27.7873 10.621 27.3794 10.2131 26.8776 9.9574C26.3072 9.66675 25.5605 9.66675 24.067 9.66675H13.9337C12.4402 9.66675 11.6934 9.66675 11.123 9.9574C10.6213 10.2131 10.2133 10.621 9.95764 11.1228C9.66699 11.6932 9.66699 12.4399 9.66699 13.9334V24.0667C9.66699 25.5602 9.66699 26.307 9.95764 26.8774C10.2133 27.3792 10.6213 27.7871 11.123 28.0428C11.6934 28.3334 12.4402 28.3334 13.9337 28.3334Z" stroke="#121315" stroke-width="2.66667" stroke-linecap="round" stroke-linejoin="round"/>
</svg>

<svg xmlns="http://www.w3.org/2000/svg" width="30" height="30" fill="none"><path stroke="#121315" stroke-linecap="round" stroke-linejoin="round" stroke-width="2.667" d="M20.334 9.667V5.933c0-1.493 0-2.24-.291-2.81a2.667 2.667 0 0 0-1.165-1.166c-.57-.29-1.317-.29-2.811-.29H5.934c-1.494 0-2.24 0-2.811.29-.502.256-.91.664-1.165 1.166-.291.57-.291 1.317-.291 2.81v10.134c0 1.493 0 2.24.29 2.81.256.502.664.91 1.166 1.166.57.29 1.317.29 2.81.29h3.734M15 19l2.667 2.667 6-6m-9.733 12.666h10.133c1.494 0 2.24 0 2.81-.29.502-.256.91-.664 1.166-1.166.29-.57.29-1.317.29-2.81V13.933c0-1.493 0-2.24-.29-2.81a2.667 2.667 0 0 0-1.165-1.166c-.57-.29-1.317-.29-2.811-.29H13.934c-1.494 0-2.24 0-2.811.29-.502.256-.91.664-1.165 1.166-.291.57-.291 1.317-.291 2.81v10.134c0 1.493 0 2.24.29 2.81.256.502.664.91 1.166 1.166.57.29 1.317.29 2.81.29"/></svg>
